assets/icons/24px/stroke/ruler-24px.svg

<svg width="24" height="24" viewBox="0 0 24 24" fill="none" xmlns="http://www.w3.org/2000/svg">
<path fill-rule="evenodd" clip-rule="evenodd" d="M6.93417 6C6.95604 6 6.97799 6 7 6L17.0658 6C17.9523 5.99995 18.7161 5.99991 19.3278 6.08215C19.9833 6.17028 20.6117 6.36902 21.1213 6.87868C21.631 7.38835 21.8297 8.0167 21.9179 8.67221C22.0001 9.28388 22.0001 10.0477 22 10.9342V13.0658C22.0001 13.9523 22.0001 14.7161 21.9179 15.3278C21.8297 15.9833 21.631 16.6117 21.1213 17.1213C20.6117 17.631 19.9833 17.8297 19.3278 17.9179C18.7161 18.0001 17.9523 18.0001 17.0658 18H6.93417C6.04769 18.0001 5.28387 18.0001 4.67221 17.9179C4.0167 17.8297 3.38835 17.631 2.87868 17.1213C2.36902 16.6117 2.17028 15.9833 2.08215 15.3278C1.99991 14.7161 1.99995 13.9523 2 13.0658C2 13.044 2 13.022 2 13V11C2 10.978 2 10.956 2 10.9342C1.99995 10.0477 1.99991 9.28387 2.08215 8.67221C2.17028 8.0167 2.36902 7.38835 2.87868 6.87868C3.38835 6.36902 4.0167 6.17028 4.67221 6.08215C5.28387 5.99991 6.04769 5.99995 6.93417 6ZM4.93871 8.06431C4.50497 8.12263 4.36902 8.21677 4.2929 8.2929C4.21677 8.36902 4.12263 8.50497 4.06431 8.93871C4.00213 9.40121 4 10.0289 4 11V13C4 13.9711 4.00213 14.5988 4.06431 15.0613C4.12263 15.495 4.21677 15.631 4.2929 15.7071C4.36902 15.7832 4.50497 15.8774 4.93871 15.9357C5.40121 15.9979 6.02893 16 7 16H17C17.9711 16 18.5988 15.9979 19.0613 15.9357C19.495 15.8774 19.631 15.7832 19.7071 15.7071C19.7832 15.631 19.8774 15.495 19.9357 15.0613C19.9979 14.5988 20 13.9711 20 13V11C20 10.0289 19.9979 9.40122 19.9357 8.93871C19.8774 8.50497 19.7832 8.36902 19.7071 8.2929C19.631 8.21677 19.495 8.12263 19.0613 8.06431C18.5988 8.00213 17.9711 8 17 8H7C6.02893 8 5.40122 8.00213 4.93871 8.06431Z" fill="white"/>
<path fill-rule="evenodd" clip-rule="evenodd" d="M12 6C12.5523 6 13 6.44772 13 7V11C13 11.5523 12.5523 12 12 12C11.4477 12 11 11.5523 11 11V7C11 6.44772 11.4477 6 12 6Z" fill="white"/>
<path fill-rule="evenodd" clip-rule="evenodd" d="M7.5 6C8.05228 6 8.5 6.44772 8.5 7V10C8.5 10.5523 8.05228 11 7.5 11C6.94772 11 6.5 10.5523 6.5 10V7C6.5 6.44772 6.94772 6 7.5 6Z" fill="white"/>
<path fill-rule="evenodd" clip-rule="evenodd" d="M16.5 6C17.0523 6 17.5 6.44772 17.5 7V10C17.5 10.5523 17.0523 11 16.5 11C15.9477 11 15.5 10.5523 15.5 10V7C15.5 6.44772 15.9477 6 16.5 6Z" fill="white"/>
</svg>

<svg width="24" height="24" fill="none" xmlns="http://www.w3.org/2000/svg"><path fill-rule="evenodd" clip-rule="evenodd" d="M6.934 6H17.066c.886 0 1.65 0 2.262.082.655.088 1.284.287 1.793.797.51.51.709 1.138.797 1.793.082.612.082 1.376.082 2.262v2.132c0 .886 0 1.65-.082 2.262-.088.655-.287 1.284-.797 1.793-.51.51-1.138.709-1.793.797-.612.082-1.376.082-2.262.082H6.934c-.886 0-1.65 0-2.262-.082-.655-.088-1.284-.287-1.793-.797-.51-.51-.709-1.138-.797-1.793C2 14.716 2 13.952 2 13.066V11v-.066c0-.886 0-1.65.082-2.262.088-.655.287-1.284.797-1.793.51-.51 1.138-.709 1.793-.797C5.284 6 6.048 6 6.934 6zM4.94 8.064c-.434.059-.57.153-.646.229-.076.076-.17.212-.229.646C4.002 9.4 4 10.029 4 11v2c0 .971.002 1.599.064 2.061.059.434.153.57.229.646.076.076.212.17.646.229C5.4 15.998 6.029 16 7 16h10c.971 0 1.599-.002 2.061-.064.434-.059.57-.153.646-.229.076-.076.17-.212.229-.646.062-.462.064-1.09.064-2.061v-2c0-.971-.002-1.599-.064-2.061-.059-.434-.153-.57-.229-.646-.076-.076-.212-.17-.646-.229C18.6 8.002 17.971 8 17 8H7c-.971 0-1.599.002-2.061.064z" fill="#fff"/><path fill-rule="evenodd" clip-rule="evenodd" d="M12 6a1 1 0 0 1 1 1v4a1 1 0 1 1-2 0V7a1 1 0 0 1 1-1zM7.5 6a1 1 0 0 1 1 1v3a1 1 0 1 1-2 0V7a1 1 0 0 1 1-1zm9 0a1 1 0 0 1 1 1v3a1 1 0 1 1-2 0V7a1 1 0 0 1 1-1z" fill="#fff"/></svg>
